assets/symbols/icons/Frame 4.svg

<?xml version="1.0" encoding="UTF-8" standalone="no"?>
<svg
   width="24"
   height="24"
   viewBox="0 0 24 24"
   fill="none"
   version="1.1"
   id="svg1"
   sodipodi:docname="Frame 4.svg"
   xmlns:inkscape="http://www.inkscape.org/namespaces/inkscape"
   xmlns:sodipodi="http://sodipodi.sourceforge.net/DTD/sodipodi-0.dtd"
   xmlns="http://www.w3.org/2000/svg"
   xmlns:svg="http://www.w3.org/2000/svg">
  <defs
     id="defs1" />
  <sodipodi:namedview
     id="namedview1"
     pagecolor="#505050"
     bordercolor="#eeeeee"
     borderopacity="1"
     inkscape:showpageshadow="0"
     inkscape:pageopacity="0"
     inkscape:pagecheckerboard="0"
     inkscape:deskcolor="#505050" />
  <path
     d="M 17.2222,15.3333 21,11.5556 m 0,0 -3.7778,-3.77782 M 21,11.5556 H 7.77778 m 5.66662,3.7777 v 0.9445 c 0,0.7514 -0.2985,1.4721 -0.8298,2.0034 -0.5314,0.5314 -1.252,0.8299 -2.0035,0.8299 H 6.83333 c -0.75144,0 -1.47211,-0.2985 -2.00347,-0.8299 C 4.29851,17.7499 4,17.0292 4,16.2778 V 6.83333 C 4,6.08189 4.29851,5.36122 4.82986,4.82986 5.36122,4.29851 6.08189,4 6.83333,4 h 3.77777 c 0.7515,0 1.4721,0.29851 2.0035,0.82986 0.5313,0.53136 0.8298,1.25203 0.8298,2.00347 v 0.94445"
     stroke="#A3A3A3"
     stroke-width="1.5"
     stroke-linecap="round"
     stroke-linejoin="round"
     id="path1"
     style="fill:none;stroke:#a3a3a3;stroke-opacity:1" />
</svg>

<svg width="24" height="24" viewBox="0 0 24 24" fill="none" xmlns="http://www.w3.org/2000/svg">
<path d="M17.2222 15.3333L21 11.5556M21 11.5556L17.2222 7.77778M21 11.5556H7.77778M13.4444 15.3333V16.2778C13.4444 17.0292 13.1459 17.7499 12.6146 18.2812C12.0832 18.8126 11.3626 19.1111 10.6111 19.1111H6.83333C6.08189 19.1111 5.36122 18.8126 4.82986 18.2812C4.29851 17.7499 4 17.0292 4 16.2778V6.83333C4 6.08189 4.29851 5.36122 4.82986 4.82986C5.36122 4.29851 6.08189 4 6.83333 4H10.6111C11.3626 4 12.0832 4.29851 12.6146 4.82986C13.1459 5.36122 13.4444 6.08189 13.4444 6.83333V7.77778" stroke="#A3A3A3" stroke-width="1.5" stroke-linecap="round" stroke-linejoin="round"/>
</svg>
